<?xml version="1.0" encoding="UTF-8"?>
<map version="1.10" tiledversion="1.12.1" orientation="orthogonal" renderorder="right-down" width="40" height="23" tilewidth="16" tileheight="16" infinite="0" nextlayerid="4" nextobjectid="26">
 <properties>
  <property name="BackgroundColor" value="Gray"/>
 </properties>
 <tileset firstgid="1" source="Pixel Adventure.tsx"/>
 <layer id="1" name="Background" width="40" height="23">
  <data encoding="csv">
24,24,24,24,24,24,24,24,24,24,24,24,24,24,24,24,24,24,24,24,24,24,24,24,24,24,24,24,24,24,24,24,24,24,24,24,24,24,24,24,
24,24,24,24,24,24,24,24,24,24,24,24,24,24,24,24,24,24,24,24,24,24,24,24,24,24,24,24,24,24,24,24,24,24,24,24,24,24,24,24,
24,24,24,24,24,24,24,24,24,24,24,24,24,24,24,24,24,24,24,24,24,24,24,24,24,24,24,24,24,24,24,24,24,24,24,24,24,24,24,24,
24,24,24,92,134,134,134,134,134,134,134,134,134,134,134,134,134,134,134,134,134,134,134,134,134,134,134,134,134,134,134,134,134,134,134,134,93,24,24,24,
24,24,24,113,0,0,0,0,0,0,0,0,0,0,0,0,0,0,0,0,0,0,0,0,0,0,0,0,0,0,0,0,0,0,0,0,111,24,24,24,
24,24,24,113,0,0,0,0,0,0,0,0,0,0,0,0,0,0,0,0,0,0,0,0,0,0,0,0,0,0,0,0,0,0,0,0,111,24,24,24,
24,24,24,113,40,41,42,0,0,0,0,0,0,0,0,0,0,0,0,0,0,0,0,0,0,0,0,0,0,0,0,0,0,0,0,0,111,24,24,24,
24,112,112,113,0,0,0,0,0,0,0,0,0,0,0,0,0,0,0,0,0,0,0,0,0,0,0,0,0,0,0,0,0,0,0,0,111,24,24,24,
24,112,112,113,0,0,0,0,0,0,0,0,0,0,0,0,0,0,0,0,0,0,0,0,0,0,0,0,0,0,0,0,0,40,41,42,111,24,24,24,
24,112,24,113,40,41,42,0,0,0,0,0,0,0,0,0,0,0,0,0,0,0,0,0,0,0,0,0,0,0,0,0,0,0,0,0,111,24,24,24,
24,24,24,113,0,0,0,0,0,0,0,0,0,0,0,0,0,0,0,0,0,0,0,0,0,0,0,0,0,0,0,0,0,0,0,0,111,24,24,24,
24,24,24,113,0,0,0,0,0,0,0,0,0,0,0,0,0,0,0,13,14,15,0,0,0,0,0,0,0,0,0,0,0,0,0,0,111,24,24,24,
24,24,24,113,40,41,42,0,0,0,0,0,0,0,0,0,0,0,0,0,0,0,0,0,0,0,0,0,13,14,15,0,0,40,41,42,111,24,24,24,
24,24,24,113,0,0,0,0,0,0,0,0,0,0,0,0,0,0,0,0,0,0,0,0,0,0,0,0,0,0,0,0,0,0,0,0,111,24,24,24,
24,24,24,113,0,0,0,0,0,0,0,0,0,0,0,0,0,0,0,0,0,0,0,0,0,0,0,0,0,0,0,0,0,0,0,0,111,24,24,24,
24,24,24,113,35,0,0,0,0,0,0,0,0,0,0,0,0,0,0,0,0,0,0,0,0,0,0,0,0,0,0,0,0,0,0,0,111,24,24,24,
24,24,24,113,7,8,8,8,8,9,0,0,0,0,0,0,0,0,0,0,0,0,0,0,0,0,0,7,8,9,7,8,9,0,0,0,111,24,24,24,
24,24,24,113,29,30,30,30,30,31,0,0,0,0,0,0,0,0,0,0,0,0,0,0,0,0,0,29,30,31,29,30,31,0,0,0,111,24,24,24,
24,24,24,113,51,52,52,52,52,53,0,0,0,0,0,0,0,0,0,0,0,0,0,0,0,0,0,51,52,53,51,52,53,0,0,0,111,24,24,24,
24,24,24,114,90,90,90,90,90,90,90,90,90,90,90,90,90,90,90,90,90,90,90,90,90,90,90,90,90,90,90,90,90,90,90,90,115,24,24,24,
24,24,24,24,24,24,24,24,112,112,112,112,112,112,24,24,24,24,24,24,24,24,24,24,24,24,24,24,24,24,24,24,24,24,24,24,24,24,24,24,
24,24,24,24,24,24,24,24,24,24,24,24,112,112,112,24,24,24,24,24,24,24,24,24,24,24,24,24,24,24,24,24,24,24,24,24,24,24,24,24,
24,24,24,24,24,24,24,24,24,24,24,24,24,24,24,24,24,24,24,24,24,24,24,24,24,24,24,24,24,24,24,24,24,24,24,24,24,24,24,24
</data>
 </layer>
 <objectgroup id="2" name="Spawnpoints">
  <object id="11" name="Player" type="Player" x="293" y="255" width="31" height="29"/>
 </objectgroup>
 <objectgroup id="3" name="Collusions">
  <object id="12" x="48" y="48" width="16" height="288"/>
  <object id="13" x="64" y="304" width="528" height="16"/>
  <object id="14" x="576" y="48" width="16" height="256"/>
  <object id="15" x="48" y="48" width="544" height="16"/>
  <object id="16" x="64" y="240" width="16" height="16"/>
  <object id="17" x="64" y="256" width="96" height="48"/>
  <object id="18" x="432" y="256" width="96" height="48"/>
  <object id="19" x="448" y="192" width="48" height="16"/>
  <object id="20" x="304" y="176" width="48" height="16"/>
  <object id="21" type="Platform" x="528" y="192" width="48" height="16"/>
  <object id="22" type="Platform" x="528" y="128" width="48" height="16"/>
  <object id="23" type="Platform" x="64" y="192" width="48" height="16"/>
  <object id="24" type="Platform" x="64" y="144" width="48" height="16"/>
  <object id="25" type="Platform" x="64" y="96" width="48" height="16"/>
 </objectgroup>
</map>
